X: 89
T:Gan Ainm
M:4/4
L:1/8
S:John Kelly, Clare (fiddle)
R:Reel
D:Fiddle concert - Milltown Malbay 1983
Z:Bernie Stocks
K:D
BEEF G3E | FDAD FDAD | BEEF G3A | Beed e4 :| gebe gebe | fdad fdad |\
gebe gebe | fedf e4 | gebe gebe | fdad fdad | g4 f3d | Bdef gfed ||
<end>
<start>
